X:463
T: IN MEINEM GAERTCHEN
N: F0871
O: Europa, Mitteleuropa, Deutschland
R: Liebes - Lied
M: 2/4
L: 1/16
K: F
c2 | c2A2B2c2 | d2c2B2
A2 | G2F2E2F2 | G4z2
G2 | A2c2c2B2 | A2B2c2
F2 | d2cBc2de | f8 | z6

